X:1
T:Raggedy-Ass Marines
M:4/4
L:1/4
K:C
 c2 d e| d2 A2| B3/2 c/2 d3/4 B/4 A3/4 G/4| c B A ^G| =G3/2 G/2 c e|\
 d2 A3/2 g/2| g3.99999962500005/11.9999985000002 g3.99999962500005/11.9999985000002 g3.99999962500005/11.9999985000002 g3/4 g/4 g3/4 f/4 e3/4 d/4|\
 c4|
